_includes/icons/color-instagram.svg

<svg fill="#666" height="50" viewBox="0 0 48 48" width="50" xmlns="http://www.w3.org/2000/svg"><path d="m32 42h-16c-5.5 0-10-4.5-10-10v-16c0-5.5 4.5-10 10-10h16c5.5 0 10 4.5 10 10v16c0 5.5-4.5 10-10 10z" fill="#304ffe"/><path d="m6 16v16c0 5.5 4.5 10 10 10h16c5.5 0 10-4.5 10-10v-16c0-1-.1-1.9-.4-2.8-5.6-4.5-12.8-7.2-20.6-7.2-3.7 0-7.3.6-10.7 1.8-2.6 1.8-4.3 4.8-4.3 8.2z" fill="#304ffe" fill-opacity=".29"/><path d="m21 8c-5 0-9.6 1.2-13.8 3.2-.8 1.5-1.2 3.1-1.2 4.8v16c0 5.5 4.5 10 10 10h16c5.5 0 10-4.5 10-10v-15.8c-5.5-5.1-12.9-8.2-21-8.2z" fill="#6200ea"/><path d="m42 19c-5.3-5.5-12.7-9-21-9-5.4 0-10.5 1.5-14.8 4.1-.1.6-.2 1.2-.2 1.9v16c0 5.5 4.5 10 10 10h16c5.5 0 10-4.5 10-10z" fill="#673ab7"/><path d="m42 22c-4.9-6.1-12.5-10-21-10-5.6 0-10.7 1.7-15 4.6v15.4c0 5.5 4.5 10 10 10h16c5.5 0 10-4.5 10-10z" fill="#8e24aa"/><path d="m42 32v-6.6c-4.5-6.8-12.2-11.4-21-11.4-5.6 0-10.8 1.9-15 5v13c0 5.5 4.5 10 10 10h16c5.5 0 10-4.5 10-10z" fill="#c2185b"/><path d="m42 32v-2.4c-3.6-8-11.6-13.6-21-13.6-5.7 0-11 2.1-15 5.6v10.4c0 5.5 4.5 10 10 10h16c5.5 0 10-4.5 10-10z" fill="#d81b60"/><path d="m41.6 34.8c-1.9-9.6-10.4-16.8-20.6-16.8-5.9 0-11.2 2.4-15 6.3v7.7c0 5.5 4.5 10 10 10h16c4.5 0 8.4-3 9.6-7.2z" fill="#f50057"/><path d="m39.9 38c-.5-10-8.7-18-18.9-18-6.1 0-11.5 2.9-15 7.4v4.6c0 5.5 4.5 10 10 10h16c3.2 0 6.1-1.6 7.9-4z" fill="#ff1744"/><path d="m21 22c-6.5 0-12.1 3.6-15 9v1c0 5.5 4.5 10 10 10h16c2.2 0 4.3-.7 5.9-2 0-.3.1-.7.1-1 0-9.4-7.6-17-17-17z" fill="#ff5722"/><path d="m21 24c-7 0-12.8 4.7-14.5 11.2 1.3 4 5.1 6.8 9.5 6.8h16c1.4 0 2.6-.3 3.8-.8.1-.7.2-1.5.2-2.2 0-8.3-6.7-15-15-15z" fill="#ff6f00"/><path d="m21 26c-6.9 0-12.5 5.3-12.9 12 1.8 2.4 4.7 4 7.9 4h16c.6 0 1.1-.1 1.7-.2.2-.9.3-1.8.3-2.8 0-7.2-5.8-13-13-13z" fill="#ff9800"/><path d="m31.6 42c.3-1 .4-2 .4-3 0-6.1-4.9-11-11-11s-11 4.9-11 11c0 .3 0 .7.1 1 1.7 1.2 3.7 2 5.9 2z" fill="#ffc107"/><path d="m21 30c-5 0-9 4-9 9 0 .8.1 1.6.3 2.3 1.1.5 2.4.7 3.7.7h13.5c.3-.9.5-1.9.5-3 0-5-4-9-9-9z" fill="#ffd54f"/><path d="m21 32.1c-3.9 0-7 3.1-7 7 0 1 .2 1.9.6 2.8.5.1.9.1 1.4.1h11.4c.4-.9.6-1.9.6-2.9 0-3.9-3.1-7-7-7z" fill="#ffe082"/><path d="m21 34.1c-2.8 0-5 2.2-5 5 0 1.1.4 2.1 1 2.9h8c.6-.8 1-1.8 1-2.9 0-2.8-2.2-5-5-5z" fill="#ffecb3"/><g fill="#fff"><path d="m30 38h-12c-4.4 0-8-3.6-8-8v-12c0-4.4 3.6-8 8-8h12c4.4 0 8 3.6 8 8v12c0 4.4-3.6 8-8 8zm-12-26c-3.3 0-6 2.7-6 6v12c0 3.3 2.7 6 6 6h12c3.3 0 6-2.7 6-6v-12c0-3.3-2.7-6-6-6z"/><path d="m24 31c-3.9 0-7-3.1-7-7s3.1-7 7-7 7 3.1 7 7-3.1 7-7 7zm0-12c-2.8 0-5 2.2-5 5s2.2 5 5 5 5-2.2 5-5-2.2-5-5-5z"/><path d="m32 16c0 .6-.4 1-1 1s-1-.4-1-1 .4-1 1-1 1 .4 1 1z"/></g></svg>

<svg xmlns="http://www.w3.org/2000/svg" viewBox="0 0 48 48" width="50" height="50" fill="#666"><path d="M32,42H16c-5.5,0-10-4.5-10-10V16c0-5.5,4.5-10,10-10h16c5.5,0,10,4.5,10,10v16 C42,37.5,37.5,42,32,42z" fill="#304ffe"/><path d="M6,16v16c0,5.5,4.5,10,10,10h16c5.5,0,10-4.5,10-10V16c0-1-0.1-1.9-0.4-2.8 C36,8.7,28.8,6,21,6c-3.7,0-7.3,0.6-10.7,1.8C7.7,9.6,6,12.6,6,16z" fill="#304ffe" fill-opacity=".29"/><path d="M21,8c-5,0-9.6,1.2-13.8,3.2C6.4,12.7,6,14.3,6,16v16c0,5.5,4.5,10,10,10h16c5.5,0,10-4.5,10-10 V16.2C36.5,11.1,29.1,8,21,8z" fill="#6200ea"/><path d="M42,19c-5.3-5.5-12.7-9-21-9c-5.4,0-10.5,1.5-14.8,4.1C6.1,14.7,6,15.3,6,16v16c0,5.5,4.5,10,10,10 h16c5.5,0,10-4.5,10-10V19z" fill="#673ab7"/><path d="M42,22c-4.9-6.1-12.5-10-21-10c-5.6,0-10.7,1.7-15,4.6V32c0,5.5,4.5,10,10,10h16c5.5,0,10-4.5,10-10 V22z" fill="#8e24aa"/><path d="M42,32v-6.6C37.5,18.6,29.8,14,21,14c-5.6,0-10.8,1.9-15,5v13c0,5.5,4.5,10,10,10h16 C37.5,42,42,37.5,42,32z" fill="#c2185b"/><path d="M42,32v-2.4C38.4,21.6,30.4,16,21,16c-5.7,0-11,2.1-15,5.6V32c0,5.5,4.5,10,10,10h16 C37.5,42,42,37.5,42,32z" fill="#d81b60"/><path d="M41.6,34.8C39.7,25.2,31.2,18,21,18c-5.9,0-11.2,2.4-15,6.3V32c0,5.5,4.5,10,10,10h16 C36.5,42,40.4,39,41.6,34.8z" fill="#f50057"/><path d="M39.9,38C39.4,28,31.2,20,21,20c-6.1,0-11.5,2.9-15,7.4V32c0,5.5,4.5,10,10,10h16 C35.2,42,38.1,40.4,39.9,38z" fill="#ff1744"/><path d="M21,22c-6.5,0-12.1,3.6-15,9v1c0,5.5,4.5,10,10,10h16c2.2,0,4.3-0.7,5.9-2c0-0.3,0.1-0.7,0.1-1 C38,29.6,30.4,22,21,22z" fill="#ff5722"/><path d="M21,24c-7,0-12.8,4.7-14.5,11.2c1.3,4,5.1,6.8,9.5,6.8h16c1.4,0,2.6-0.3,3.8-0.8 c0.1-0.7,0.2-1.5,0.2-2.2C36,30.7,29.3,24,21,24z" fill="#ff6f00"/><path d="M21,26c-6.9,0-12.5,5.3-12.9,12c1.8,2.4,4.7,4,7.9,4h16c0.6,0,1.1-0.1,1.7-0.2 C33.9,40.9,34,40,34,39C34,31.8,28.2,26,21,26z" fill="#ff9800"/><path d="M31.6,42c0.3-1,0.4-2,0.4-3c0-6.1-4.9-11-11-11s-11,4.9-11,11c0,0.3,0,0.7,0.1,1 c1.7,1.2,3.7,2,5.9,2H31.6z" fill="#ffc107"/><path d="M21,30c-5,0-9,4-9,9c0,0.8,0.1,1.6,0.3,2.3c1.1,0.5,2.4,0.7,3.7,0.7h13.5c0.3-0.9,0.5-1.9,0.5-3 C30,34,26,30,21,30z" fill="#ffd54f"/><path d="M21,32.1c-3.9,0-7,3.1-7,7c0,1,0.2,1.9,0.6,2.8C15.1,42,15.5,42,16,42h11.4c0.4-0.9,0.6-1.9,0.6-2.9 C28,35.2,24.9,32.1,21,32.1z" fill="#ffe082"/><path d="M21,34.1c-2.8,0-5,2.2-5,5c0,1.1,0.4,2.1,1,2.9H25c0.6-0.8,1-1.8,1-2.9C26,36.3,23.8,34.1,21,34.1z" fill="#ffecb3"/><path d="M30,38H18c-4.4,0-8-3.6-8-8V18c0-4.4,3.6-8,8-8h12c4.4,0,8,3.6,8,8v12C38,34.4,34.4,38,30,38z M18,12c-3.3,0-6,2.7-6,6v12c0,3.3,2.7,6,6,6h12c3.3,0,6-2.7,6-6V18c0-3.3-2.7-6-6-6H18z" fill="#fff"/><path d="M24,31c-3.9,0-7-3.1-7-7c0-3.9,3.1-7,7-7c3.9,0,7,3.1,7,7C31,27.9,27.9,31,24,31z M24,19 c-2.8,0-5,2.2-5,5s2.2,5,5,5s5-2.2,5-5S26.8,19,24,19z" fill="#fff"/><path d="M32,16c0,0.6-0.4,1-1,1s-1-0.4-1-1s0.4-1,1-1S32,15.4,32,16z" fill="#fff"/></svg>
